examples/pa-2012-pres.svg

<svg width="601" height="350" xmlns="http://www.w3.org/2000/svg">
 <g stroke="#000" stroke-linejoin="bevel" stroke-width="1.0">
  <g fill="#ffffff">
   <path d="M0,0l601,0l0,350l-601,0l0,-350ZM517,37l-68,0l-77,0l-68,0l-60,0l-71,0l-70,-1l-14,-1l-1,-29l-4,-1l-21,10l-5,5l-7,-3l-13,13l-22,10l-4,0l0,16l0,45l1,45l1,35l-1,47l0,68l1,30l60,-2l45,1l6,-2l25,2l36,-1l41,0l3,2l27,-2l62,0l45,0l77,0l15,0l32,1l6,-10l11,-5l11,0l9,4l5,-4l10,-2l2,1l6,-3l4,-4l2,-7l15,-15l10,-2l13,-9l-5,-9l-12,-11l-4,-9l-12,-7l0,-15l-3,-2l-8,0l-4,-4l3,-8l0,-12l7,-4l4,-9l-1,-7l-5,-5l1,-6l9,-5l3,-5l9,-8l8,-19l7,-4l4,-6l-4,-6l-11,-1l-11,-6l-8,-14l-1,-15l2,-4l-6,-5l0,-5l-5,-3l-9,-1l-2,-9l-7,-8l-14,0Z"/>
  </g>
  <g fill="#ff0000">
   <path d="M376,87l7,2l6,23l14,13l15,5l-13,15l-3,0l-12,-3l-12,0l-3,4l-6,-1l-3,7l-16,2l-3,-1l-13,-17l-17,-11l-14,-23l2,-7l58,0l13,-8Z"/>
   <path d="M304,37l68,0l4,50l-13,8l-58,0l-1,-58Z"/>
   <path d="M372,37l77,0l3,43l-9,1l1,5l-3,7l-58,-4l-7,-2l-4,-50Z"/>
   <path d="M240,132l14,3l5,8l-6.94,4.06l5.07,9.07l0.04,5.04l-2.97,3.03l1.02,3.02l-1.98,2.02l-5.96,-0.96l-4.95,5.05l-6.91,11.09l-3.97,2.03l-2.94,9.06l-22.26,1.74l-21.24,-1.24l-1,-22l1,-28l6,-13l5,3l4,-5l40,1Z"/>
   <path d="M244,37l60,0l1,58l-2,7l-37,0l-6,0l-18,-18l2,-47Z"/>
   <path d="M162,251l11,0l4,7l21,1l-8,22l-1,32l-3,11l-36,1l-25,-2l0,-6l3,-2l0,-3l-5,-6l4,-9l5,-5l2,-7l9,-11l5,-2l1,-4l8,-9l2,-7l3,-1Z"/>
   <path d="M95,203l4,0l10,10l-1,3l2,3l10,4l0,3l5,4l10,0l2,4l12,2l5,5l5,-1l2,-4l6,2l-5,13l-3,1l-2,7l-8,9l-1,4l-5,2l-9,11l-4,-1l-3,-6l-11,-7l-13,8l-11,-6l-12,1l-4,-3l4,-4l-1,-2l7,-6l2,-19l6,-4l0,-14l-6,-4l0,-4l6,-6l1,-5Z"/>
   <path d="M12,56l90,1l1,28l-21,0l-4,6l-3,0l-2,4l-10,6l-51,0l0,-45Z"/>
   <path d="M204,247l14,9l3,-4l4,0l10,6l3,-2l2,5l12,9l-4,6l-4,1l3,6l-13,31l-7,10l-41,0l3,-11l1,-32l8,-22l1,-6l5,-6Z"/>
   <path d="M244,37l-2,47l-21,3l-4,0l-2,-3l-45,1l0,-26l3,-3l0,-19l71,0Z"/>
   <path d="M448,248l24,18l5,6l-5,3l0,10l-5,10l0,6l-11,23l-15,0l-2,-5l-10,-9l-1,-7l-10,-7l-6,-11l-12,-3l-7,-10l15,-8l9,-4l16,-3l15,-9Z"/>
   <path d="M103,36l70,1l0,19l-3,3l0,26l-56,1l-11,-1l-1,-28l1,-21Z"/>
   <path d="M250,195l5,0l14,6l12,-6l13,3l4,-1l2,7l-4,5l-5,0l-7,5l-3,4l2,8l-7,8l1,8l4,2l8,-1l7.5,12l-7.17,8l-10.33,19l-6,-6l-21,-6l-12,-9l-2,-5l8,-16l-1,-2l7,-10l-5,-9l1,-10l-6,-4l8,-10Z"/>
   <path d="M379,260l14,12l7,10l12,3l6,11l10,7l1,7l10,9l2,5l-77,0l0,-13l4,-3l-2,-15l-3,-5l-5,-1l-1,-4l-6,-2l10,-10l10,-3l0,-4l3,-3l3,1l2,-2Z"/>
   <path d="M266,102l37,0l14,23l17,11l13,17l3,1l-4,5l-31,10l-7,-16l-10,-4l-7,0l-6,-9l-9,0l-2,-8l-7,3l-8,8l-5,-8l12,-18l0,-15Z"/>
   <path d="M13,228l16,1l17,19l24,8l0,6l9,3l1,2l-4,4l4,3l-3,11l-7,5l-5,-1l1,3l-2,2l-4,-5l-3,0l-2,3l-5,0l-2,-3l-14,-2l-4,4l-7,1l-3,4l-7,0l0,-68Z"/>
   <path d="M477,204l35,28l-15,25l-7,3l-13,12l-5,-6l-24,-18l-3,-5l-22,-16l4,-3l8,0l23,-9l6,0l5,-9l8,-2Z"/>
   <path d="M517,37l0,45l-27,0l-38,-2l-3,-43l68,0Z"/>
   <path d="M144,174l40,0l1,22l-8,25l-4,5l1,2l-4,8l-3,2l-6,-2l-2,4l-5,1l-5,-5l-12,-2l-2,-4l-10,0l-5,-4l0,-3l24,-32l0,-17Z"/>
   <path d="M444,169l18,5l5,-1l11,14l11,7l-12,10l-8,2l-5,9l-6,0l-23,9l-8,0l-4,3l-14,-8l-14,-12l31,-17l9,-4l2,-11l7,-6Z"/>
   <path d="M221,87l2,23l16,3l1,19l-40,-1l-4,5l-5,-3l-1,-6l-20,-11l-8,3l-5,-1l1,-11l11,-1l1,-2l0,-19l45,-1l2,3l4,0Z"/>
   <path d="M134,285l-2,7l-5,5l-4,9l5,6l0,3l-3,2l0,6l-6,2l-45,-1l-2,-4l2,-6l-2,-4l1,-10l-9,-6l2,-2l-1,-3l5,1l7,-5l3,-11l12,-1l11,6l13,-8l11,7l3,6l4,1Z"/>
   <path d="M64,141l30,0l2,8l-1,54l-45,1l-2,-23l1,-20l6,-8l8,-8l1,-4Z"/>
   <path d="M497,257l9,2l1,3l5,2l0,5l6,2l2,6l3,0l4,4l-3,2l1,3l-5,3l1,2l-7,4l-1,4l-7,6l-1,5l-11,5l-6,10l-32,-1l11,-23l0,-6l5,-10l0,-10l5,-3l13,-12l7,-3Z"/>
   <path d="M296.5,255l7.5,10l9,21l6,7l0,31l-62,0l12,-20l4,-15l6,-7l10.33,-19l7.17,-8Z"/>
   <path d="M559,87l-8,12l-8,8l-3,0l0,3l-4,4l-8,1l1,5l3,2l-4,10l-12,1l0,-3l5,-3l-4,-45l0,-45l14,0l7,8l2,9l9,1l5,3l0,5l6,5l-2,4l1,15Z"/>
   <path d="M96,149l3,2l1,5l5,2l0,4l5,3l6,-3l9,0l3,2l15,-8l1,18l0,17l-24,32l-10,-4l-2,-3l1,-3l-10,-10l-4,0l1,-54Z"/>
   <path d="M103,85l11,1l-1,20l4,2l0,7l-2,5l-11,2l-5,15l-5,4l-30,0l-1,-40l10,-6l2,-4l3,0l4,-6l21,0Z"/>
   <path d="M228.5,195.5l-2.93,8.07l-4.95,3.05l-2.91,11.09l-6.91,7.09l-2.87,17.13l-3.94,5.06l-5,6l-1,6l-21,-1l-4,-7l-11,0l5,-13l3,-2l4,-8l-1,-2l4,-5l8,-25l21.24,1.24l22.26,-1.74Z"/>
   <path d="M12,101l51,0l1,40l-1,4l-8,8l-5,-5l-10,-2l-27,0l-1,-45Z"/>
   <path d="M191,133l-6,13l-1,28l-40,0l-1,-18l2,-35l4,-2l6,1l2,-2l5,1l8,-3l20,11l1,6Z"/>
   <path d="M145,121l-2,35l-15,8l-3,-2l-9,0l-6,3l-5,-3l0,-4l-5,-2l-1,-5l-3,-2l-2,-8l5,-4l5,-15l11,-2l2,-5l5,-1l3,-6l18,0l2,13Z"/>
   <path d="M559,87l8,14l11,6l11,1l4,6l-4,6l-7,4l-8,19l-9,8l-5,-2l-3,-6l-6,-1l0,-11l-23,1l4,-10l-3,-2l-1,-5l8,-1l4,-4l0,-3l3,0l8,-8l8,-12Z"/>
   <path d="M64,294l9,6l-1,10l2,4l-2,6l2,4l-60,2l-1,-30l7,0l3,-4l7,-1l4,-4l14,2l2,3l5,0l2,-3l3,0l4,5Z"/>
   <path d="M372,248l1,6l6,6l-2,2l-3,-1l-3,3l0,4l-10,3l-10,10l-6,5l-20,3l-6,4l-6,-7l-9,-21l18,-13l6,3l3,-3l8,2l33,-6Z"/>
   <path d="M369,210l1,2l-3,3l0,8l3,3l0,4l-8,10l4,4l6,0l0,4l-33,6l-8,-2l-3,3l-6,-3l-18,13l-7.5,-10l6.06,-8l9.06,-6l0.01,-3l17.12,-12l15.09,-5l7.06,-7l12.06,-1l6.04,-3Z"/>
   <path d="M250,195l-8,10l6,4l-1,10l5,9l-7,10l1,2l-8,16l-3,2l-10,-6l-4,0l-3,4l-14,-9l3.94,-5.06l2.87,-17.13l6.91,-7.09l2.91,-11.09l4.95,-3.05l2.93,-8.07l21.5,-0.5Z"/>
   <path d="M351,281l6,2l1,4l5,1l3,5l2,15l-4,3l0,13l-45,0l0,-31l6,-4l20,-3l6,-5Z"/>
   <path d="M433,124l2,16l3,6l4,0l1,4l1,19l-7,6l-2,11l-9,4l-3,-6l-9,1l0,-5l-3,-3l2,-10l-5,-5l1,-5l-6,-3l1,-4l-2,-5l3,0l13,-15l5,-6l10,0Z"/>
   <path d="M383,89l58,4l-4,22l-4,9l-10,0l-5,6l-15,-5l-14,-13l-6,-23Z"/>
   <path d="M390,142l1,9l-5,14l1,3l16,0l8,9l3,3l0,5l9,-1l3,6l-31,17l-11,1l-10,5l-4,-1l-1,-2l11,-12l0,-12l5,-6l-5,-5l-2,-5l2,-16l-5,-8l3,-4l12,0Z"/>
   <path d="M252,270l21,6l6,6l-6,7l-4,15l-12,20l-27,2l-3,-2l7,-10l13,-31l-3,-6l4,-1l4,-6Z"/>
   <path d="M14,181l34,0l2,23l0,6l-5,2l-16,17l-16,-1l1,-47Z"/>
   <path d="M452,80l38,2l-5,14l2,3l-7,11l-27,5l-16,0l4,-22l3,-7l-1,-5l9,-1Z"/>
   <path d="M170,85l0,19l-1,2l-11,1l-1,11l-2,2l-6,-1l-4,2l-2,-13l-18,0l-3,6l-5,1l0,-7l-4,-2l1,-20l56,-1Z"/>
   <path d="M328,182l1,4l0,13l5,2l-2,3l-16,7l0,4l-11,8l-1,5l-4,4l-8,4l-3,7l-8,1l-4,-2l-1,-8l7,-8l-2,-8l3,-4l7,-5l5,0l4,-5l-2,-7l24,-14l6,-1Z"/>
   <path d="M242,84l18,18l6,0l0,15l-12,18l-14,-3l-1,-19l-16,-3l-2,-23l21,-3Z"/>
   <path d="M501,147l14,14l-7,8l6,7l2,8l-12,5l-15,5l-11,-7l-11,-14l22,-11l2,-3l-3,-3l0,-4l7,-6l6,1Z"/>
   <path d="M334,201l20,1l15,8l-6.04,3l-12.06,1l-7.06,7l-15.09,5l-17.12,12l-0.01,3l-9.06,6l-6.06,8l-7.5,-12l3,-7l8,-4l4,-4l1,-5l11,-8l0,-4l16,-7l2,-3Z"/>
   <path d="M13,146l27,0l10,2l5,5l-6,8l-1,20l-34,0l-1,-35Z"/>
   <path d="M409,219l14,8l22,16l3,5l-15,9l-16,3l-9,4l-11,-36l12,-9Z"/>
   <path d="M380,175l5,5l-5,6l0,12l-11,12l-15,-8l-20,-1l-5,-2l0,-13l51,-11Z"/>
   <path d="M375,146l5,8l-2,16l2,5l-51,11l-1,-4l19,-21l-1,-2l4,-5l16,-2l3,-7l6,1Z"/>
   <path d="M390,142l12,3l2,5l-1,4l6,3l-1,5l5,5l-2,10l-8,-9l-16,0l-1,-3l5,-14l-1,-9Z"/>
  </g>
  <g fill="#0000ff">
   <path d="M346,159l1,2l-19,21l-6,1l-24,14l-4,1l-13,-3l-12,6l-14,-6l-5,0l-21.5,0.5l2.94,-9.06l3.97,-2.03l6.91,-11.09l4.95,-5.05l5.96,0.96l1.98,-2.02l-1.02,-3.02l2.97,-3.03l-0.04,-5.04l-5.07,-9.07l6.94,-4.06l8,-8l7,-3l2,8l9,0l6,9l7,0l10,4l7,16l31,-10Z"/>
   <path d="M480,110l3,4l6,1l6,5l-1,4l6,7l-1,8l5,4l-3,4l-6,-1l-7,6l0,4l3,3l-2,3l-22,11l-5,1l-18,-5l-1,-19l-1,-4l-4,0l-3,-6l-2,-16l4,-9l16,0l27,-5Z"/>
   <path d="M103,36l-1,21l-90,-1l0,-16l4,0l22,-10l13,-13l7,3l5,-5l21,-10l4,1l1,29l14,1Z"/>
   <path d="M95,203l-1,5l-6,6l0,4l6,4l0,14l-6,4l-2,19l-7,6l-9,-3l0,-6l-24,-8l-17,-19l16,-17l5,-2l0,-6l45,-1Z"/>
   <path d="M544,212l4,4l8,0l3,2l0,15l12,7l4,9l12,11l5,9l-13,9l-10,2l1,-5l-6,-3l-47,-38l14,-14l13,-8Z"/>
   <path d="M565,151l-3,5l-9,5l-1,6l-9,4l-5,6l-9,5l-13,2l-2,-8l-6,-7l7,-8l-14,-14l3,-4l3,-2l2,-6l7,-2l12,-1l23,-1l0,11l6,1l3,6l5,2Z"/>
   <path d="M395,207l14,12l-12,9l11,36l-15,8l-14,-12l-6,-6l-1,-6l0,-4l-6,0l-4,-4l8,-10l0,-4l-3,-3l0,-8l3,-3l4,1l10,-5l11,-1Z"/>
   <path d="M512,232l5,2l47,38l-9,10l-14,-4l-2,4l5,5l-6,4l-8,-10l-3,0l-4,-4l-3,0l-2,-6l-6,-2l0,-5l-5,-2l-1,-3l-9,-2l15,-25Z"/>
   <path d="M490,82l27,0l4,45l-5,3l0,3l-7,2l-2,6l-3,2l-5,-4l1,-8l-6,-7l1,-4l-6,-5l-6,-1l-3,-4l7,-11l-2,-3l5,-14Z"/>
   <path d="M552,167l5,5l1,7l-4,9l-7,4l0,12l-3,8l-13,8l-6,-5l2,-6l-3,-4l-2,-2l-5,1l-5,-8l-3,2l-5,-9l12,-5l13,-2l9,-5l5,-6l9,-4Z"/>
   <path d="M504,189l5,9l3,-2l5,8l5,-1l2,2l3,4l-2,6l6,5l-14,14l-5,-2l-35,-28l12,-10l15,-5Z"/>
   <path d="M527,281l3,0l8,10l0,3l3,2l-3,3l2,9l-10,2l-5,4l-9,-4l-11,0l1,-5l7,-6l1,-4l7,-4l-1,-2l5,-3l-1,-3l3,-2Z"/>
   <path d="M564,272l6,3l-1,5l-15,15l-2,7l-4,4l-6,3l-2,-1l-2,-9l3,-3l-3,-2l0,-3l6,-4l-5,-5l2,-4l14,4l9,-10Z"/>
  </g>
 </g>
</svg>

<svg width="601" height="350" xmlns="http://www.w3.org/2000/svg">
 <g stroke="#000" stroke-linejoin="bevel" stroke-width="1.0">
  <g fill="#ffffff">
   <path d="M0,0l601,0l0,350l-601,0l0,-350ZM517,37l-68,0l-77,0l-68,0l-60,0l-71,0l-70,-1l-14,-1l-1,-29l-4,-1l-21,10l-5,5l-7,-3l-13,13l-22,10l-4,0l0,16l0,45l1,45l1,35l-1,47l0,68l1,30l60,-2l45,1l6,-2l25,2l36,-1l41,0l3,2l27,-2l62,0l45,0l77,0l15,0l32,1l6,-10l11,-5l11,0l9,4l5,-4l10,-2l2,1l6,-3l4,-4l2,-7l15,-15l10,-2l13,-9l-5,-9l-12,-11l-4,-9l-12,-7l0,-15l-3,-2l-8,0l-4,-4l3,-8l0,-12l7,-4l4,-9l-1,-7l-5,-5l1,-6l9,-5l3,-5l9,-8l8,-19l7,-4l4,-6l-4,-6l-11,-1l-11,-6l-8,-14l-1,-15l2,-4l-6,-5l0,-5l-5,-3l-9,-1l-2,-9l-7,-8l-14,0Z"/>
  </g>
  <g fill="#ff0000">
   <path d="M376,87l7,2l6,23l14,13l15,5l-13,15l-3,0l-12,-3l-12,0l-3,4l-6,-1l-3,7l-16,2l-3,-1l-13,-17l-17,-11l-14,-23l2,-7l58,0l13,-8Z"/>
   <path d="M304,37l68,0l4,50l-13,8l-58,0l-1,-58Z"/>
   <path d="M372,37l77,0l3,43l-9,1l1,5l-3,7l-58,-4l-7,-2l-4,-50Z"/>
   <path d="M240,132l14,3l5,8L252.06,147.06L257.13,156.13L257.16,161.16L254.19,164.19L255.21,167.21L253.23,169.23L247.27,168.27L242.32,173.32L235.41,184.41L231.44,186.44L228.5,195.5L206.24,197.24L185,196l-1,-22l1,-28l6,-13l5,3l4,-5l40,1Z"/>
   <path d="M244,37l60,0l1,58l-2,7l-37,0l-6,0l-18,-18l2,-47Z"/>
   <path d="M162,251l11,0l4,7l21,1l-8,22l-1,32l-3,11l-36,1l-25,-2l0,-6l3,-2l0,-3l-5,-6l4,-9l5,-5l2,-7l9,-11l5,-2l1,-4l8,-9l2,-7l3,-1Z"/>
   <path d="M95,203l4,0l10,10l-1,3l2,3l10,4l0,3l5,4l10,0l2,4l12,2l5,5l5,-1l2,-4l6,2l-5,13l-3,1l-2,7l-8,9l-1,4l-5,2l-9,11l-4,-1l-3,-6l-11,-7l-13,8l-11,-6l-12,1l-4,-3l4,-4l-1,-2l7,-6l2,-19l6,-4l0,-14l-6,-4l0,-4l6,-6l1,-5Z"/>
   <path d="M12,56l90,1l1,28l-21,0l-4,6l-3,0l-2,4l-10,6l-51,0l0,-45Z"/>
   <path d="M204,247l14,9l3,-4l4,0l10,6l3,-2l2,5l12,9l-4,6l-4,1l3,6l-13,31l-7,10l-41,0l3,-11l1,-32l8,-22l1,-6l5,-6Z"/>
   <path d="M244,37l-2,47l-21,3l-4,0l-2,-3l-45,1l0,-26l3,-3l0,-19l71,0Z"/>
   <path d="M448,248l24,18l5,6l-5,3l0,10l-5,10l0,6l-11,23l-15,0l-2,-5l-10,-9l-1,-7l-10,-7l-6,-11l-12,-3l-7,-10l15,-8l9,-4l16,-3l15,-9Z"/>
   <path d="M103,36l70,1l0,19l-3,3l0,26l-56,1l-11,-1l-1,-28l1,-21Z"/>
   <path d="M250,195l5,0l14,6l12,-6l13,3l4,-1l2,7l-4,5l-5,0l-7,5l-3,4l2,8l-7,8l1,8l4,2l8,-1L296.5,255L289.33,263L279,282l-6,-6l-21,-6l-12,-9l-2,-5l8,-16l-1,-2l7,-10l-5,-9l1,-10l-6,-4l8,-10Z"/>
   <path d="M379,260l14,12l7,10l12,3l6,11l10,7l1,7l10,9l2,5l-77,0l0,-13l4,-3l-2,-15l-3,-5l-5,-1l-1,-4l-6,-2l10,-10l10,-3l0,-4l3,-3l3,1l2,-2Z"/>
   <path d="M266,102l37,0l14,23l17,11l13,17l3,1l-4,5l-31,10l-7,-16l-10,-4l-7,0l-6,-9l-9,0l-2,-8l-7,3l-8,8l-5,-8l12,-18l0,-15Z"/>
   <path d="M13,228l16,1l17,19l24,8l0,6l9,3l1,2l-4,4l4,3l-3,11l-7,5l-5,-1l1,3l-2,2l-4,-5l-3,0l-2,3l-5,0l-2,-3l-14,-2l-4,4l-7,1l-3,4l-7,0l0,-68Z"/>
   <path d="M477,204l35,28l-15,25l-7,3l-13,12l-5,-6l-24,-18l-3,-5l-22,-16l4,-3l8,0l23,-9l6,0l5,-9l8,-2Z"/>
   <path d="M517,37l0,45l-27,0l-38,-2l-3,-43l68,0Z"/>
   <path d="M144,174l40,0l1,22l-8,25l-4,5l1,2l-4,8l-3,2l-6,-2l-2,4l-5,1l-5,-5l-12,-2l-2,-4l-10,0l-5,-4l0,-3l24,-32l0,-17Z"/>
   <path d="M444,169l18,5l5,-1l11,14l11,7l-12,10l-8,2l-5,9l-6,0l-23,9l-8,0l-4,3l-14,-8l-14,-12l31,-17l9,-4l2,-11l7,-6Z"/>
   <path d="M221,87l2,23l16,3l1,19l-40,-1l-4,5l-5,-3l-1,-6l-20,-11l-8,3l-5,-1l1,-11l11,-1l1,-2l0,-19l45,-1l2,3l4,0Z"/>
   <path d="M134,285l-2,7l-5,5l-4,9l5,6l0,3l-3,2l0,6l-6,2l-45,-1l-2,-4l2,-6l-2,-4l1,-10l-9,-6l2,-2l-1,-3l5,1l7,-5l3,-11l12,-1l11,6l13,-8l11,7l3,6l4,1Z"/>
   <path d="M64,141l30,0l2,8l-1,54l-45,1l-2,-23l1,-20l6,-8l8,-8l1,-4Z"/>
   <path d="M497,257l9,2l1,3l5,2l0,5l6,2l2,6l3,0l4,4l-3,2l1,3l-5,3l1,2l-7,4l-1,4l-7,6l-1,5l-11,5l-6,10l-32,-1l11,-23l0,-6l5,-10l0,-10l5,-3l13,-12l7,-3Z"/>
   <path d="M296.5,255L304,265l9,21l6,7l0,31l-62,0l12,-20l4,-15l6,-7L289.33,263L296.5,255Z"/>
   <path d="M559,87l-8,12l-8,8l-3,0l0,3l-4,4l-8,1l1,5l3,2l-4,10l-12,1l0,-3l5,-3l-4,-45l0,-45l14,0l7,8l2,9l9,1l5,3l0,5l6,5l-2,4l1,15Z"/>
   <path d="M96,149l3,2l1,5l5,2l0,4l5,3l6,-3l9,0l3,2l15,-8l1,18l0,17l-24,32l-10,-4l-2,-3l1,-3l-10,-10l-4,0l1,-54Z"/>
   <path d="M103,85l11,1l-1,20l4,2l0,7l-2,5l-11,2l-5,15l-5,4l-30,0l-1,-40l10,-6l2,-4l3,0l4,-6l21,0Z"/>
   <path d="M228.5,195.5L225.57,203.57L220.62,206.62L217.72,217.72L210.81,224.81L207.94,241.94L204,247l-5,6l-1,6l-21,-1l-4,-7l-11,0l5,-13l3,-2l4,-8l-1,-2l4,-5l8,-25L206.24,197.24L228.5,195.5Z"/>
   <path d="M12,101l51,0l1,40l-1,4l-8,8l-5,-5l-10,-2l-27,0l-1,-45Z"/>
   <path d="M191,133l-6,13l-1,28l-40,0l-1,-18l2,-35l4,-2l6,1l2,-2l5,1l8,-3l20,11l1,6Z"/>
   <path d="M145,121l-2,35l-15,8l-3,-2l-9,0l-6,3l-5,-3l0,-4l-5,-2l-1,-5l-3,-2l-2,-8l5,-4l5,-15l11,-2l2,-5l5,-1l3,-6l18,0l2,13Z"/>
   <path d="M559,87l8,14l11,6l11,1l4,6l-4,6l-7,4l-8,19l-9,8l-5,-2l-3,-6l-6,-1l0,-11l-23,1l4,-10l-3,-2l-1,-5l8,-1l4,-4l0,-3l3,0l8,-8l8,-12Z"/>
   <path d="M64,294l9,6l-1,10l2,4l-2,6l2,4l-60,2l-1,-30l7,0l3,-4l7,-1l4,-4l14,2l2,3l5,0l2,-3l3,0l4,5Z"/>
   <path d="M372,248l1,6l6,6l-2,2l-3,-1l-3,3l0,4l-10,3l-10,10l-6,5l-20,3l-6,4l-6,-7l-9,-21l18,-13l6,3l3,-3l8,2l33,-6Z"/>
   <path d="M369,210l1,2l-3,3l0,8l3,3l0,4l-8,10l4,4l6,0l0,4l-33,6l-8,-2l-3,3l-6,-3l-18,13L296.5,255L302.56,247L311.62,241L311.64,238L328.76,226L343.85,221L350.91,214L362.96,213L369,210Z"/>
   <path d="M250,195l-8,10l6,4l-1,10l5,9l-7,10l1,2l-8,16l-3,2l-10,-6l-4,0l-3,4l-14,-9L207.94,241.94L210.81,224.81L217.72,217.72L220.62,206.62L225.57,203.57L228.5,195.5L250,195Z"/>
   <path d="M351,281l6,2l1,4l5,1l3,5l2,15l-4,3l0,13l-45,0l0,-31l6,-4l20,-3l6,-5Z"/>
   <path d="M433,124l2,16l3,6l4,0l1,4l1,19l-7,6l-2,11l-9,4l-3,-6l-9,1l0,-5l-3,-3l2,-10l-5,-5l1,-5l-6,-3l1,-4l-2,-5l3,0l13,-15l5,-6l10,0Z"/>
   <path d="M383,89l58,4l-4,22l-4,9l-10,0l-5,6l-15,-5l-14,-13l-6,-23Z"/>
   <path d="M390,142l1,9l-5,14l1,3l16,0l8,9l3,3l0,5l9,-1l3,6l-31,17l-11,1l-10,5l-4,-1l-1,-2l11,-12l0,-12l5,-6l-5,-5l-2,-5l2,-16l-5,-8l3,-4l12,0Z"/>
   <path d="M252,270l21,6l6,6l-6,7l-4,15l-12,20l-27,2l-3,-2l7,-10l13,-31l-3,-6l4,-1l4,-6Z"/>
   <path d="M14,181l34,0l2,23l0,6l-5,2l-16,17l-16,-1l1,-47Z"/>
   <path d="M452,80l38,2l-5,14l2,3l-7,11l-27,5l-16,0l4,-22l3,-7l-1,-5l9,-1Z"/>
   <path d="M170,85l0,19l-1,2l-11,1l-1,11l-2,2l-6,-1l-4,2l-2,-13l-18,0l-3,6l-5,1l0,-7l-4,-2l1,-20l56,-1Z"/>
   <path d="M328,182l1,4l0,13l5,2l-2,3l-16,7l0,4l-11,8l-1,5l-4,4l-8,4l-3,7l-8,1l-4,-2l-1,-8l7,-8l-2,-8l3,-4l7,-5l5,0l4,-5l-2,-7l24,-14l6,-1Z"/>
   <path d="M242,84l18,18l6,0l0,15l-12,18l-14,-3l-1,-19l-16,-3l-2,-23l21,-3Z"/>
   <path d="M501,147l14,14l-7,8l6,7l2,8l-12,5l-15,5l-11,-7l-11,-14l22,-11l2,-3l-3,-3l0,-4l7,-6l6,1Z"/>
   <path d="M334,201l20,1l15,8L362.96,213L350.91,214L343.85,221L328.76,226L311.64,238L311.62,241L302.56,247L296.5,255L289,243l3,-7l8,-4l4,-4l1,-5l11,-8l0,-4l16,-7l2,-3Z"/>
   <path d="M13,146l27,0l10,2l5,5l-6,8l-1,20l-34,0l-1,-35Z"/>
   <path d="M409,219l14,8l22,16l3,5l-15,9l-16,3l-9,4l-11,-36l12,-9Z"/>
   <path d="M380,175l5,5l-5,6l0,12l-11,12l-15,-8l-20,-1l-5,-2l0,-13l51,-11Z"/>
   <path d="M375,146l5,8l-2,16l2,5l-51,11l-1,-4l19,-21l-1,-2l4,-5l16,-2l3,-7l6,1Z"/>
   <path d="M390,142l12,3l2,5l-1,4l6,3l-1,5l5,5l-2,10l-8,-9l-16,0l-1,-3l5,-14l-1,-9Z"/>
  </g>
  <g fill="#0000ff">
   <path d="M346,159l1,2l-19,21l-6,1l-24,14l-4,1l-13,-3l-12,6l-14,-6l-5,0L228.5,195.5L231.44,186.44L235.41,184.41L242.32,173.32L247.27,168.27L253.23,169.23L255.21,167.21L254.19,164.19L257.16,161.16L257.13,156.13L252.06,147.06L259,143l8,-8l7,-3l2,8l9,0l6,9l7,0l10,4l7,16l31,-10Z"/>
   <path d="M480,110l3,4l6,1l6,5l-1,4l6,7l-1,8l5,4l-3,4l-6,-1l-7,6l0,4l3,3l-2,3l-22,11l-5,1l-18,-5l-1,-19l-1,-4l-4,0l-3,-6l-2,-16l4,-9l16,0l27,-5Z"/>
   <path d="M103,36l-1,21l-90,-1l0,-16l4,0l22,-10l13,-13l7,3l5,-5l21,-10l4,1l1,29l14,1Z"/>
   <path d="M95,203l-1,5l-6,6l0,4l6,4l0,14l-6,4l-2,19l-7,6l-9,-3l0,-6l-24,-8l-17,-19l16,-17l5,-2l0,-6l45,-1Z"/>
   <path d="M544,212l4,4l8,0l3,2l0,15l12,7l4,9l12,11l5,9l-13,9l-10,2l1,-5l-6,-3l-47,-38l14,-14l13,-8Z"/>
   <path d="M565,151l-3,5l-9,5l-1,6l-9,4l-5,6l-9,5l-13,2l-2,-8l-6,-7l7,-8l-14,-14l3,-4l3,-2l2,-6l7,-2l12,-1l23,-1l0,11l6,1l3,6l5,2Z"/>
   <path d="M395,207l14,12l-12,9l11,36l-15,8l-14,-12l-6,-6l-1,-6l0,-4l-6,0l-4,-4l8,-10l0,-4l-3,-3l0,-8l3,-3l4,1l10,-5l11,-1Z"/>
   <path d="M512,232l5,2l47,38l-9,10l-14,-4l-2,4l5,5l-6,4l-8,-10l-3,0l-4,-4l-3,0l-2,-6l-6,-2l0,-5l-5,-2l-1,-3l-9,-2l15,-25Z"/>
   <path d="M490,82l27,0l4,45l-5,3l0,3l-7,2l-2,6l-3,2l-5,-4l1,-8l-6,-7l1,-4l-6,-5l-6,-1l-3,-4l7,-11l-2,-3l5,-14Z"/>
   <path d="M552,167l5,5l1,7l-4,9l-7,4l0,12l-3,8l-13,8l-6,-5l2,-6l-3,-4l-2,-2l-5,1l-5,-8l-3,2l-5,-9l12,-5l13,-2l9,-5l5,-6l9,-4Z"/>
   <path d="M504,189l5,9l3,-2l5,8l5,-1l2,2l3,4l-2,6l6,5l-14,14l-5,-2l-35,-28l12,-10l15,-5Z"/>
   <path d="M527,281l3,0l8,10l0,3l3,2l-3,3l2,9l-10,2l-5,4l-9,-4l-11,0l1,-5l7,-6l1,-4l7,-4l-1,-2l5,-3l-1,-3l3,-2Z"/>
   <path d="M564,272l6,3l-1,5l-15,15l-2,7l-4,4l-6,3l-2,-1l-2,-9l3,-3l-3,-2l0,-3l6,-4l-5,-5l2,-4l14,4l9,-10Z"/>
  </g>
 </g>
</svg>
